X:89
T:Johnny Leary's
R:polka
D:Begley & Cooney: Meitheal
Z:id:hn-polka-89
M:2/4
L:1/8
K:A
A/B/A/F/ EF|AB ce|fe ce/c/|BA FA|A/B/A/F/ EF|AB ce|fe ce/c/|BA A2:|
|:fe ce|fe e2|a>f ec|BA FA|A/B/A/F/ EF|AB ce|fe ce/c/|BA A2:|
<end>
<start>
